X: 23
T:Mr Marshall's Compliments to Niel Gow
B:William Marshall's Scottish Airs, Melodies, Strathspeys, Reels &c (1822)
C:William Marshall
L:1/8
M:C
O:Scotland
R:Slow Air
Z:Clark Bernst + Richard Robinson
%%Page:21 - 3
F:http://richardrobinson.tunebook.org.uk/tune/3866
%%TBL:{"version":1,"type":"tune","id":"3866"}
K:A
%%staves {1 2}
V:1
"^Slowly"
E | \
[A,EA]cAE Ac [A,EA]2           | (A/B/)c/B/ AE F<B- B2 | \
{Bc}cBAE Af{f}e>d | (c/d/)e/f/ (e/d/)c/B/ cAA  :|
f/g/ | \
acec ac e2        | (a/g/)f/e/ (d/c/)B/A/ (G/A/)B/c/ Bf/g/ | \
acec ac e2        | (f/e/)d/c/ (B/c/)d/e/ cAA f/g/ |
acec ac e2        | (a/g/)f/e/ (d/c/)B/A/ (G/A/)B/c/ Bc | \
A>cAE Fc !fermata!d>f | f/e/d/c/ (B/c/)d/e/ cA-A |]
V:2 middle=d clef=bass
L:1/4
z/ | AAAA | Acdd | Acdc/B/ | AeAA/ :| \
z/ | [Aa] [Aa] [Aa] [Aa] | [Aa] [Aa] [ee'] [ee'] | [Aa] aaa | [dd'] [ee'] [Aa] [Aa]/ z/ | \
     [Aa] [Aa] [Aa] [Aa] | [Aa] [Aa]  [ee'] [ee'] | aAd/c/ !fermata!B/G/ | [Aa]  [Ee] [Aa] [Aa]/  |]

